!!!COM: Haydn, Franz Joseph
!!!OPR: Symphony in C Major
!!!OTL: Affettuoso 
!!!OMV: 3
!!!SCT: H I:97
!!!SCA: Thematisch-bibliographisches Werkevererzeichnis (A. van Hoboken)
!!!YOR: Dover Edition
!!!EED: Frances Bennion
!!!ENC: Frances Bennion
!!!CDT: 1732/3/31/-1809/5/31/
!!!OCY: Österreich
!!!YEC: Copyright (c) 1994, 2000 Center for Computer Assisted Research in the Humanities
!!!YEM: Rights to all derivative editions reserved.
!!!YEM: Refer to licensing agreement for further details.
!!!YEN: United States of America
**kern	**kern	**kern	**kern	**kern	**kern	**kern	**kern	**kern	**kern	**kern	**kern	**kern	**kern	**kern	**kern
*k[]	*k[]	*k[]	*k[]	*k[]	*k[]	*k[]	*k[]	*k[]	*k[]	*k[]	*k[]	*k[]	*k[]	*k[]	*k[]
*C:	*C:	*C:	*C:	*C:	*C:	*C:	*C:	*C:	*C:	*C:	*C:	*C:	*C:	*C:	*C:
*clefF	*clefF	*clefF4	*clefF	*clefF	*clefC3	*clefF4	*clefF4	*clefF	*clefF	*clefF	*clefF4	*clefF4	*clefF	*clefF	*clefF
*M3/4	*M3/4	*M3/4	*M3/4	*M3/4	*M3/4	*M3/4	*M3/4	*M3/4	*M3/4	*M3/4	*M3/4	*M3/4	*M3/4	*M3/4	*M3/4
*tb8	*tb8	*tb8	*tb8	*tb8	*tb8	*tb8	*tb8	*tb8	*tb8	*tb8	*tb8	*tb8	*tb8	*tb8	*tb8
=0-	=0-	=0-	=0-	=0-	=0-	=0-	=0-	=0-	=0-	=0-	=0-	=0-	=0-	=0-	=0-
2r	2r	2r	2r	2r	2r	2r	2r	2r	2r	2r	2r	2r	2r	2r	2r
4ee	4cc	4C	4ee	4cc	4g	4C	4C	4ee	4ee	4cc	4C	4C	4ee	4cc	4ee
=1	=1	=1	=1	=1	=1	=1	=1	=1	=1	=1	=1	=1	=1	=1	=1
4ff	4dd	4GG	4ff	4dd	4g	4BB	4BB	4ff	4ff	4dd	[2.G	[2.G	4ff	4dd	4ff
4ee	4cc	4r	4ee	4cc	4g	4C	4C	4ee	4ee	4cc	.	.	4ee	4cc	4ee
4dd	4g	4GG	4dd	4b	4g	4F	4F	4dd	4dd	4b	.	.	4dd	4g	4dd
=2	=2	=2	=2	=2	=2	=2	=2	=2	=2	=2	=2	=2	=2	=2	=2
4cc	4e	4C	4cc	2cc	4g	4E	4E	4cc	4cc	2cc	4G]	4G]	4cc	4e	4cc
4aa	2r	2r	4aa	.	4f	4F	4F	4aa	4aa	.	4F	4F	2r	2r	2r
4gg	.	.	4gg	4cc#	4e	4E	4E	4gg	4gg	4cc#	4E	4E	.	.	.
=3	=3	=3	=3	=3	=3	=3	=3	=3	=3	=3	=3	=3	=3	=3	=3
4ff	4r	4r	4ff	4dd	4d	4D	4D	4ff	4ff	4dd	4D	4D	4r	4r	4r
4dd	4g	4GG	4dd	4b	4g	4G	4G	4dd	4dd	4b	4G	4G	4dd	4g	4dd
4ee	4cc	4C	4ee	4cc	4c	4C	4C	4ee	4ee	4cc	4C	4C	4ee	4cc	4ee
=4	=4	=4	=4	=4	=4	=4	=4	=4	=4	=4	=4	=4	=4	=4	=4
4dd	4g	4GG	4dd	4b	4G	4G	4G	4dd	4dd	4b	4G	4G	4dd	4g	4dd
4r	2r	2r	4r	4r	4r	4r	4r	4r	4r	4r	4r	4r	2r	2r	2r
4gg	.	.	4gg	4g	4d	4B	4B	4gg	4gg	4g	4d	4d	.	.	.
=5	=5	=5	=5	=5	=5	=5	=5	=5	=5	=5	=5	=5	=5	=5	=5
4ff#	2.r	2.r	4ff#	4a	4d	4c	4c	4ff#	4ff#	4a	2.d	2.d	2.dd	2.dd	2.r
4gg	.	.	4gg	4b	4d	4B	4B	4gg	4gg	4b	.	.	.	.	.
4aa	.	.	4aa	4cc	4d	4F#	4F#	4aa	4aa	4cc	.	.	.	.	.
=6	=6	=6	=6	=6	=6	=6	=6	=6	=6	=6	=6	=6	=6	=6	=6
4bb	2.r	4GG	4bb	4b	4d	4G	4G	4bb	4bb	4b	4d	4d	4dd	2g	2.r
4gg	.	2r	4gg	4r	4b	4E	4E	4gg	4gg	4r	4e	4e	4ee	.	.
4ccc	.	.	4ccc	4aa	4e	4C	4C	4ccc	4ccc	4aa	4e	4e	4ee	4cc	.
=7	=7	=7	=7	=7	=7	=7	=7	=7	=7	=7	=7	=7	=7	=7	=7
2bb	4dd	2.r	2bb	2gg	2d	2.D	2.D	2bb	2bb	2gg	2d	2d	2.dd	2.dd	4dd
.	8dd	.	.	.	.	.	.	.	.	.	.	.	.	.	8dd
.	8dd	.	.	.	.	.	.	.	.	.	.	.	.	.	8dd
4aa	4dd	.	4aa	4ff#	4c	.	.	4aa	4aa	4ff#	4c	4c	.	.	4dd
=8	=8	=8	=8	=8	=8	=8	=8	=8	=8	=8	=8	=8	=8	=8	=8
4gg	4g	4GG	4gg	4gg	4B	4G	4G	4gg	4gg	4gg	4B	4B	4dd	4g	4dd
2r	2r	2r	4r	4r	4r	4r	2r	2r	2r	2r	2r	2r	2r	2r	2r
.	.	.	8ee	8cc	8c	8c	.	.	.	.	.	.	.	.	.
.	.	.	8r	8r	8r	8r	.	.	.	.	.	.	.	.	.
=9	=9	=9	=9	=9	=9	=9	=9	=9	=9	=9	=9	=9	=9	=9	=9
2.r	2.r	2.r	8ff	8dd	8B	8B	2.r	2.r	2.r	2.r	2.r	2.r	2.r	2.r	2.r
.	.	.	8r	8r	8r	8r	.	.	.	.	.	.	.	.	.
.	.	.	8ee	8cc	8c	8c	.	.	.	.	.	.	.	.	.
.	.	.	8r	8r	8r	8r	.	.	.	.	.	.	.	.	.
.	.	.	8dd	8b	8f	8f	.	.	.	.	.	.	.	.	.
.	.	.	8r	8r	8r	8r	.	.	.	.	.	.	.	.	.
=10	=10	=10	=10	=10	=10	=10	=10	=10	=10	=10	=10	=10	=10	=10	=10
2.r	2.r	2.r	8cc	8cc	8e	8e	2.r	2.r	2.r	2.r	2.r	2.r	2.r	2.r	2.r
.	.	.	8r	8r	8r	8r	.	.	.	.	.	.	.	.	.
.	.	.	8aa	8cc	8f	8f	.	.	.	.	.	.	.	.	.
.	.	.	8r	8r	8r	8r	.	.	.	.	.	.	.	.	.
.	.	.	8gg	8cc#	8e	8e	.	.	.	.	.	.	.	.	.
.	.	.	8r	8r	8r	8r	.	.	.	.	.	.	.	.	.
=11	=11	=11	=11	=11	=11	=11	=11	=11	=11	=11	=11	=11	=11	=11	=11
2.r	2.r	2.r	8ff	8dd	8d	8d	2.r	2.r	2.r	2.r	2.r	2.r	2.r	2.r	2.r
.	.	.	8r	8r	8r	8r	.	.	.	.	.	.	.	.	.
.	.	.	8dd	8b	8g	8g	.	.	.	.	.	.	.	.	.
.	.	.	8r	8r	8r	8r	.	.	.	.	.	.	.	.	.
.	.	.	8ee	8cc	8c	8c	.	.	.	.	.	.	.	.	.
.	.	.	8r	8r	8r	8r	.	.	.	.	.	.	.	.	.
=12	=12	=12	=12	=12	=12	=12	=12	=12	=12	=12	=12	=12	=12	=12	=12
2.r	2.r	2.r	4dd	4b	4G	4G	2r	2.r	2r	2r	2.r	2.r	2.r	2.r	2.r
.	.	.	4r	4r	4r	4r	.	.	.	.	.	.	.	.	.
.	.	.	4gg	4g	4d	8B	4B	.	4gg	4g	.	.	.	.	.
.	.	.	.	.	.	8d	.	.	.	.	.	.	.	.	.
=13	=13	=13	=13	=13	=13	=13	=13	=13	=13	=13	=13	=13	=13	=13	=13
2.r	2.r	2.r	4ff#	4a	2.d	8c	4c	2.r	4ff#	4a	2.d	2.d	2.r	2.r	2.r
.	.	.	.	.	.	8d	.	.	.	.	.	.	.	.	.
.	.	.	4gg	4b	.	8B	4B	.	4gg	4b	.	.	.	.	.
.	.	.	.	.	.	8d	.	.	.	.	.	.	.	.	.
.	.	.	4aa	4cc	.	8A	4A	.	4aa	4cc	.	.	.	.	.
.	.	.	.	.	.	8d	.	.	.	.	.	.	.	.	.
=14	=14	=14	=14	=14	=14	=14	=14	=14	=14	=14	=14	=14	=14	=14	=14
2.r	2.r	2.r	4bb	4b	4d	4G	4G	2.r	4bb	4b	4d	4d	2.r	2.r	2.r
.	.	.	4gg	4r	4b	4E	4E	.	4gg	4r	4e	4e	.	.	.
.	.	.	4ccc	4aa	4e	4C	4C	.	4ccc	4aa	4c	4c	.	.	.
=15	=15	=15	=15	=15	=15	=15	=15	=15	=15	=15	=15	=15	=15	=15	=15
2.r	2.r	2.r	2bb	2gg	2d	2.D	2.D	2.r	2bb	2gg	2d	2d	2.r	2.r	2.r
.	.	.	4aa	4ff#	4c	.	.	.	4aa	4ff#	4c	4c	.	.	.
=16	=16	=16	=16	=16	=16	=16	=16	=16	=16	=16	=16	=16	=16	=16	=16
2.r	2r	2.r	4gg	4gg	4B	4GG	4GG	2.r	4gg	4gg	4B	4B	2r	2r	2r
.	.	.	4r	4r	2r	4G	4G	.	4r	4r	4r	4r	.	.	.
.	4ee	.	4gg	4ee	.	4r	4r	.	4gg	4ee	4g	4e	4gg	4ee	4gg
=17	=17	=17	=17	=17	=17	=17	=17	=17	=17	=17	=17	=17	=17	=17	=17
2r	4dd	4GG	4ff	4dd	2G	2GG	2GG	2r	4ff	4dd	4f	4d	4ff	4dd	4ff
.	4g	2r	4dd	4b	.	.	.	.	4dd	4b	4d	4B	4dd	4g	4dd
4eee	4cc	.	4ee	4cc	4r	4r	4r	4eee	4ee	4cc	4e	4c	4ee	4cc	4ee
=18	=18	=18	=18	=18	=18	=18	=18	=18	=18	=18	=18	=18	=18	=18	=18
4ddd	2g	4GG	4dd	4b	2G	2GG	2GG	4ddd	4dd	4b	4d	4B	2dd	2g	2dd
4bb	.	2r	4b	4g	.	.	.	4bb	4b	4g	4B	4G	.	.	.
4ccc	4r	.	4cc	4e	4r	4r	4r	4ccc	4cc	4e	4r	4r	4r	4r	4r
=19	=19	=19	=19	=19	=19	=19	=19	=19	=19	=19	=19	=19	=19	=19	=19
4bb	4g	4GG	4b	4d	4G	2GG	2GG	4bb	4b	4d	4B	4B	2g	2g	4g
4gg	2r	8GG	4g	4B	4g	.	.	4gg	4g	4g	4d	4d	.	.	2r
.	.	8GG	.	.	.	.	.	.	.	.	.	.	.	.	.
4aa	.	8GG	4a	4c	4f#	4r	4r	4aa	4a	4f#	4f#	4f#	4cc	4c	.
.	.	8GG	.	.	.	.	.	.	.	.	.	.	.	.	.
=20	=20	=20	=20	=20	=20	=20	=20	=20	=20	=20	=20	=20	=20	=20	=20
2gg	4g	4GG	2g	2B	4g	4GG	4GG	2gg	2g	2g	4g	4g	4g	4g	4g
.	2r	2r	.	.	4G	4G	4G	.	.	.	4r	4r	2r	2r	2r
4cc	.	.	4b-	4c	4g	4E	4E	4cc	4bb-	4gg	4E	4E	.	.	.
=21	=21	=21	=21	=21	=21	=21	=21	=21	=21	=21	=21	=21	=21	=21	=21
4cc	2.r	2.r	4a	4c	4f	2F	2F	4cc	4aa	4ff	2F	2F	2.r	2.r	2.r
4ff	.	.	4f	4f	4A	.	.	4ff	4r	4r	.	.	.	.	.
4ee-	.	.	4cc	4e-	4a	4F#	4F#	4ee-	4ccc	4aa	4F#	4F#	.	.	.
=22	=22	=22	=22	=22	=22	=22	=22	=22	=22	=22	=22	=22	=22	=22	=22
4dd	2.r	2.r	4b	4d	4g	2G	2G	4dd	4bb	4gg	2G	2G	2.r	2.r	2.r
4gg	.	.	4g	4g	4B	.	.	4gg	4r	4r	.	.	.	.	.
4aa-	.	.	4a-	4a-	4a-	4A-	4A-	4aa-	4aa-	4aa-	4A-	4A-	.	.	.
=23	=23	=23	=23	=23	=23	=23	=23	=23	=23	=23	=23	=23	=23	=23	=23
4gg	2.r	2.r	4g	4g	4g	4G	4G	4gg	4gg	4gg	4G	4G	2.r	2.r	2.r
4eee-	.	.	4e-	4e-	4e-	4E-	4E-	4eee-	4ee-	4ee-	4E-	4E-	.	.	.
4ccc	.	.	4c	4c	4c	4C	4C	4ccc	4cc	4cc	4C	4C	.	.	.
=24	=24	=24	=24	=24	=24	=24	=24	=24	=24	=24	=24	=24	=24	=24	=24
4gg	2r	2r	4G	4G	4G	4GG	4GG	4gg	4g	4g	4GG	4GG	2r	2r	2r
4r	.	.	4r	4r	4r	4r	4r	4r	4r	4r	4r	4r	.	.	.
8ee	8cc	8C	8ee	8cc	8g	8c	8c	8ee	8ee	8cc	8c	8c	8ee	8cc	8ee
8r	8r	8r	8r	8r	8r	8r	8r	8r	8r	8r	8r	8r	8r	8r	8r
=25	=25	=25	=25	=25	=25	=25	=25	=25	=25	=25	=25	=25	=25	=25	=25
8ff	8dd	8GG	8ff	8dd	8g	8B	8B	8ff	8ff	8dd	8B	8B	8ff	8dd	8ff
8r	8r	8r	8r	8r	8r	8r	8r	8r	8r	8r	8r	8r	8r	8r	8r
8ee	8cc	8C	8ee	8cc	8g	8c	8c	8ee	8ee	8cc	8c	8c	8ee	8cc	8ee
8r	8r	8r	8r	8r	8r	8r	8r	8r	8r	8r	8r	8r	8r	8r	8r
8dd	8g	8GG	8dd	8b	8g	8F	8F	8dd	8dd	8b	8F	8F	8dd	8g	8dd
8r	8r	8r	8r	8r	8r	8r	8r	8r	8r	8r	8r	8r	8r	8r	8r
=26	=26	=26	=26	=26	=26	=26	=26	=26	=26	=26	=26	=26	=26	=26	=26
8cc	8e	8C	8cc	8cc	8g	8E	8E	8cc	8cc	8cc	8E	8E	8cc	8e	8cc
8r	2r	2r	8r	8r	8r	8r	8r	8r	8r	8r	8r	8r	2r	2r	2r
8aa	.	.	8aa	8cc	8f	8F	8F	8aa	8aa	8cc	8F	8F	.	.	.
8r	.	.	8r	8r	8r	8r	8r	8r	8r	8r	8r	8r	.	.	.
8gg	.	.	8gg	8cc#	8e	8E	8E	8gg	8gg	8cc#	8E	8E	.	.	.
8r	8r	8r	8r	8r	8r	8r	8r	8r	8r	8r	8r	8r	8r	8r	8r
=27	=27	=27	=27	=27	=27	=27	=27	=27	=27	=27	=27	=27	=27	=27	=27
8ff	2.r	2.r	8ff	8dd	8d	8D	8D	8ff	8ff	8dd	8D	8D	2.r	2.r	2.r
8r	.	.	8r	8r	8r	8r	8r	8r	8r	8r	8r	8r	.	.	.
8dd	.	.	8dd	8b	8g	8G	8G	8dd	8dd	8b	8G	8G	.	.	.
8r	.	.	8r	8r	8r	8r	8r	8r	8r	8r	8r	8r	.	.	.
8ee	.	.	8ee	8cc	8c	8C	8C	8ee	8ee	8cc	8C	8C	.	.	.
8r	.	.	8r	8r	8r	8r	8r	8r	8r	8r	8r	8r	.	.	.
=28	=28	=28	=28	=28	=28	=28	=28	=28	=28	=28	=28	=28	=28	=28	=28
4dd	2r	2r	4dd	4b	4g	4G	4G	4dd	4dd	4b	4G	4G	2r	2r	2r
4r	.	.	4r	4r	4r	4r	4r	4r	4r	4r	4r	4r	.	.	.
4ccc	4e	4C	4ccc	4cc	4g	8E	8E	4ccc	4ccc	4cc	8E	8E	4cc	4e	4cc
.	.	.	.	.	.	8G	8G	.	.	.	8G	8G	.	.	.
=29	=29	=29	=29	=29	=29	=29	=29	=29	=29	=29	=29	=29	=29	=29	=29
4bb	4g	4GG	4bb	4dd	4g	8F	8F	4bb	4bb	4dd	8F	8F	4dd	4g	4dd
.	.	.	.	.	.	8G	8G	.	.	.	8G	8G	.	.	.
4ccc	4e	4C	4ccc	4ee	4g	8E	8E	4ccc	4ccc	4ee	8E	8E	4cc	4e	4cc
.	.	.	.	.	.	8G	8G	.	.	.	8G	8G	.	.	.
4ddd	4g	4GG	4ddd	4ff	4B 4g	8D	8D	4ddd	4ff	4ff	8D	8D	4dd	4g	4dd
.	.	.	.	.	.	8G	8G	.	.	.	8G	8G	.	.	.
=30	=30	=30	=30	=30	=30	=30	=30	=30	=30	=30	=30	=30	=30	=30	=30
4eee	2cc	4C	4eee	4gg	2c 2e	2C	2C	4eee	4ee	4gg	2C	2C	4ee	4cc	2ee
4ccc	.	2r	4ccc	4ee	.	.	.	4ccc	4cc	4ee	.	.	4cc	4e	.
4aa	4r	.	4aa	4ff	4f	4F	4F	4aa	4aa	4ff	4F	4F	4cc	4cc	4r
=31	=31	=31	=31	=31	=31	=31	=31	=31	=31	=31	=31	=31	=31	=31	=31
4gg	4r	4GG	4gg	4ee	2g	2G	2G	4gg	4gg	4ee	2G	2G	4cc	4cc	4r
4ee	4cc	8GG	4ee	4cc	.	.	.	4ee	4ee	4cc	.	.	4ee	4cc	4ee
.	.	8GG	.	.	.	.	.	.	.	.	.	.	.	.	.
4dd	4g	8GG	4dd	4b	4G	4GG	4GG	4dd	4dd	4b	4GG	4GG	4dd	4g	4dd
.	.	8GG	.	.	.	.	.	.	.	.	.	.	.	.	.
=32	=32	=32	=32	=32	=32	=32	=32	=32	=32	=32	=32	=32	=32	=32	=32
4cc	4e	4C	4cc	4cc	4c	8CC	4C	4cc	4cc	4cc	4C	4C	4cc	4e	4cc
.	.	.	.	.	.	8C	.	.	.	.	.	.	.	.	.
2r	2r	2r	4r	4r	2r	8CC	2r	2r	2r	2r	2r	2r	2r	2r	2r
.	.	.	.	.	.	8C	.	.	.	.	.	.	.	.	.
.	.	.	4a	4f	.	8CC	.	.	.	.	.	.	.	.	.
.	.	.	.	.	.	8C	.	.	.	.	.	.	.	.	.
=33	=33	=33	=33	=33	=33	=33	=33	=33	=33	=33	=33	=33	=33	=33	=33
2.r	2.r	2.r	4g	4e	2.r	8CC	2.r	2.r	2r	2r	2.r	2.r	2.r	2.r	2.r
.	.	.	.	.	.	8C	.	.	.	.	.	.	.	.	.
.	.	.	4c	4c	.	8CC	.	.	.	.	.	.	.	.	.
.	.	.	.	.	.	8C	.	.	.	.	.	.	.	.	.
.	.	.	4r	4r	.	8CC	.	.	4aa	4ff	.	.	.	.	.
.	.	.	.	.	.	8C	.	.	.	.	.	.	.	.	.
=34	=34	=34	=34	=34	=34	=34	=34	=34	=34	=34	=34	=34	=34	=34	=34
2r	2.r	2.r	2.r	2.r	2.r	8CC	2.r	2r	4gg	4ee	2.r	2.r	2.r	2.r	2.r
.	.	.	.	.	.	8C	.	.	.	.	.	.	.	.	.
.	.	.	.	.	.	8CC	.	.	4cc	4cc	.	.	.	.	.
.	.	.	.	.	.	8C	.	.	.	.	.	.	.	.	.
4fff	.	.	.	.	.	8CC	.	4aa	4r	4r	.	.	.	.	.
.	.	.	.	.	.	8C	.	.	.	.	.	.	.	.	.
=35	=35	=35	=35	=35	=35	=35	=35	=35	=35	=35	=35	=35	=35	=35	=35
4eee	2.r	2.r	2.r	2.r	2.r	8CC	2.r	4gg	2.r	2.r	2r	2r	2.r	2.r	2.r
.	.	.	.	.	.	8C	.	.	.	.	.	.	.	.	.
4ccc	.	.	.	.	.	8CC	.	4ee	.	.	.	.	.	.	.
.	.	.	.	.	.	8C	.	.	.	.	.	.	.	.	.
4r	.	.	.	.	.	8CC	.	4r	.	.	4A	4F	.	.	.
.	.	.	.	.	.	8C	.	.	.	.	.	.	.	.	.
=36	=36	=36	=36	=36	=36	=36	=36	=36	=36	=36	=36	=36	=36	=36	=36
2r	2r	8C	2r	2r	2r	8CC	2r	2r	2r	2r	4G	4E	2r	2r	2r
.	.	8C	.	.	.	8C	.	.	.	.	.	.	.	.	.
.	.	8C	.	.	.	8CC	.	.	.	.	4E	4C	.	.	.
.	.	8C	.	.	.	8C	.	.	.	.	.	.	.	.	.
4ccc	4e	8C	4ccc	4cc	4g	8E	8E	4ccc	4ccc	4cc	8E	8E	4cc	4e	4cc
.	.	8C	.	.	.	8G	8G	.	.	.	8G	8G	.	.	.
=37	=37	=37	=37	=37	=37	=37	=37	=37	=37	=37	=37	=37	=37	=37	=37
4bb	4g	4GG	4bb	4dd	4g	8F	8F	4bb	4bb	4dd	8F	8F	4dd	4g	4dd
.	.	.	.	.	.	8G	8G	.	.	.	8G	8G	.	.	.
4ccc	4e	4C	4ccc	4ee	4g	8E	8E	4ccc	4ccc	4ee	8E	8E	4cc	4e	4cc
.	.	.	.	.	.	8G	8G	.	.	.	8G	8G	.	.	.
4ddd	4g	4GG	4ddd	4ff	4g 4B	8D	8D	4ddd	4ff	4ff	8D	8D	4dd	4g	4dd
.	.	.	.	.	.	8G	8G	.	.	.	8G	8G	.	.	.
=38	=38	=38	=38	=38	=38	=38	=38	=38	=38	=38	=38	=38	=38	=38	=38
4eee	4cc	4C	4eee	4gg	2e 2c	2C	2C	4eee	4ee	4ee	4C	4C	4ee	4cc	4ee
4ccc	4e	4r	4ccc	4ee	.	.	.	4ccc	4cc	4cc	4r	4r	4cc	4e	4cc
4r	4g	4GG	4r	4r	4r	4r	4r	4r	4dd	4g	4d	4G	4dd	4g	4dd
=39	=39	=39	=39	=39	=39	=39	=39	=39	=39	=39	=39	=39	=39	=39	=39
2r	4cc	4C	2r	2r	2r	2r	2r	2r	4ee	4cc	4e	4c	4ee	4cc	4ee
.	4e	4r	.	.	.	.	.	.	4cc	4e	4c	4E	4cc	4e	4cc
4ddd	4g	4GG	4ddd	4bb	4g	4G	4G	4ddd	4dd	4b	4G	4G	4dd	4g	4dd
=40	=40	=40	=40	=40	=40	=40	=40	=40	=40	=40	=40	=40	=40	=40	=40
4eee	4cc	4C	4eee	4ccc	2cc	2c	2c	4eee	4ee	4cc	2c	2c	4ee	4cc	4ee
4ccc	4e	2r	4ccc	4ee	.	.	.	4ccc	4cc	4ee	.	.	4cc	4e	4cc
4eee	4r	.	4eee	4ccc	4a	4A	4A	4eee	4ccc	4ee	4A	4A	4r	4r	4r
=41	=41	=41	=41	=41	=41	=41	=41	=41	=41	=41	=41	=41	=41	=41	=41
4fff	2r	2r	4fff	4aa	4d	4D	4D	4fff	4aa	4ff	4D	4D	2r	2r	2r
4ddd	.	.	4ddd	4ff	4f	4F	4F	4ddd	4ff	4dd	4F	4F	.	.	.
4bb	4g	4GG	4bb	4dd	4g	4G	4G	4bb	4dd	4b	4G	4G	4dd	4g	4dd
=42	=42	=42	=42	=42	=42	=42	=42	=42	=42	=42	=42	=42	=42	=42	=42
4ccc	4cc	4C	4ccc	4cc 4ee	4c	4C	4C	4ccc	4ee	4cc	4C	4C	4ee	4cc	4ee
2r	4r	4r	4r	4r	2r	2r	2r	2r	4r	4r	4r	4r	4r	4r	4r
.	4ee	4GG	4gg	4ee	.	.	.	.	4gg	4ee	4g	4e	4gg	4ee	4gg
=43	=43	=43	=43	=43	=43	=43	=43	=43	=43	=43	=43	=43	=43	=43	=43
2r	4dd	4GG	4ff	4dd	2G	2GG	2GG	2r	4ff	4dd	4f	4d	4ff	4dd	4ff
.	4g	8GG	4dd	4b	.	.	.	.	4dd	4b	4d	4B	4dd	4g	4dd
.	.	8GG	.	.	.	.	.	.	.	.	.	.	.	.	.
4eee	4cc	8GG	4ee	4cc	4r	4r	4r	4eee	4ee	4cc	4e	4c	4ee	4cc	4ee
.	.	8GG	.	.	.	.	.	.	.	.	.	.	.	.	.
=44	=44	=44	=44	=44	=44	=44	=44	=44	=44	=44	=44	=44	=44	=44	=44
4ddd	2g	4GG	4dd	4b	2G	2GG	2GG	4ddd	4dd	4b	4d	4B	2dd	2g	2dd
4bb	.	2r	4b	4g	.	.	.	4bb	4b	4g	4B	4G	.	.	.
4ccc	4r	.	4cc	4e	4r	4r	4r	4ccc	4cc	4e	4r	4r	4r	4r	4r
=45	=45	=45	=45	=45	=45	=45	=45	=45	=45	=45	=45	=45	=45	=45	=45
4bb	4g	4GG	4b	4d	4G	2GG	2GG	4bb	4b	4d	4B	4B	2g	2g	4g
4gg	2r	8GG	4g	4B	4g	.	.	4gg	4g	4g	4d	4d	.	.	2r
.	.	8GG	.	.	.	.	.	.	.	.	.	.	.	.	.
4aa	.	8GG	4a	4c	4f#	4r	4r	4aa	4a	4f#	4f#	4f#	4cc	4c	.
.	.	8GG	.	.	.	.	.	.	.	.	.	.	.	.	.
=46	=46	=46	=46	=46	=46	=46	=46	=46	=46	=46	=46	=46	=46	=46	=46
2gg	4g	4GG	2g	2B	4g	4GG	4GG	2gg	2g	2g	4g	4g	4g	4g	4g
.	2r	2r	.	.	4G	4G	4G	.	.	.	4r	4r	2r	2r	2r
4cc	.	.	4b-	4c	4g	4E	4E	4cc	4bb-	4gg	4E	4E	.	.	.
=47	=47	=47	=47	=47	=47	=47	=47	=47	=47	=47	=47	=47	=47	=47	=47
4cc	2.r	2.r	4a	4c	4f	2F	2F	4cc	4aa	4ff	2F	2F	2.r	2.r	2.r
4ff	.	.	4f	4f	4A	.	.	4ff	4r	4r	.	.	.	.	.
4ee-	.	.	4cc	4e-	4a	4F#	4F#	4ee-	4ccc	4aa	4F#	4F#	.	.	.
=48	=48	=48	=48	=48	=48	=48	=48	=48	=48	=48	=48	=48	=48	=48	=48
4dd	2.r	2.r	4b	4d	4g	2G	2G	4dd	4bb	4gg	2G	2G	2.r	2.r	2.r
4gg	.	.	4g	4g	4B	.	.	4gg	4r	4r	.	.	.	.	.
4aa-	.	.	4a-	4a-	4a-	4A-	4A-	4aa-	4aa-	4aa-	4A-	4A-	.	.	.
=49	=49	=49	=49	=49	=49	=49	=49	=49	=49	=49	=49	=49	=49	=49	=49
4gg	2.r	2.r	4g	4g	4g	4G	4G	4gg	4gg	4gg	4G	4G	2.r	2.r	2.r
4eee-	.	.	4e-	4e-	4e-	4E-	4E-	4eee-	4ee-	4ee-	4E-	4E-	.	.	.
4ccc	.	.	4c	4c	4c	4C	4C	4ccc	4cc	4cc	4C	4C	.	.	.
=50	=50	=50	=50	=50	=50	=50	=50	=50	=50	=50	=50	=50	=50	=50	=50
4gg	2.r	2.r	4G	4G	4G	4GG	4GG	4gg	4g	4g	4GG	4GG	2.r	2.r	2.r
2r	.	.	4r	4r	4r	4r	2r	2r	2r	2r	2r	2r	.	.	.
.	.	.	8ee	8cc	8g	8c	.	.	.	.	.	.	.	.	.
.	.	.	8r	8r	8r	8r	.	.	.	.	.	.	.	.	.
=51	=51	=51	=51	=51	=51	=51	=51	=51	=51	=51	=51	=51	=51	=51	=51
2.r	2.r	2.r	8ff	8dd	8g	8B	2.r	2.r	2.r	2.r	2.r	2.r	2.r	2.r	2.r
.	.	.	8r	8r	8r	8r	.	.	.	.	.	.	.	.	.
.	.	.	8ee	8cc	8g	8c	.	.	.	.	.	.	.	.	.
.	.	.	8r	8r	8r	8r	.	.	.	.	.	.	.	.	.
.	.	.	8dd	8b	8g	8f	.	.	.	.	.	.	.	.	.
.	.	.	8r	8r	8r	8r	.	.	.	.	.	.	.	.	.
=52	=52	=52	=52	=52	=52	=52	=52	=52	=52	=52	=52	=52	=52	=52	=52
2.r	2.r	2.r	8cc	8cc	8g	8e	2.r	2.r	2.r	2.r	2.r	2.r	2.r	2.r	2.r
.	.	.	8r	8r	8r	8r	.	.	.	.	.	.	.	.	.
.	.	.	8aa	8cc	8f	8f	.	.	.	.	.	.	.	.	.
.	.	.	8r	8r	8r	8r	.	.	.	.	.	.	.	.	.
.	.	.	8gg	8cc#	8e	8e	.	.	.	.	.	.	.	.	.
.	.	.	8r	8r	8r	8r	.	.	.	.	.	.	.	.	.
=53	=53	=53	=53	=53	=53	=53	=53	=53	=53	=53	=53	=53	=53	=53	=53
2.r	2.r	2.r	8ff	8dd	8a	8d	2.r	2.r	2.r	2.r	2.r	2.r	2.r	2.r	2.r
.	.	.	8r	8r	8r	8r	.	.	.	.	.	.	.	.	.
.	.	.	8dd	8b	8g	8g	.	.	.	.	.	.	.	.	.
.	.	.	8r	8r	8r	8r	.	.	.	.	.	.	.	.	.
.	.	.	8ee	8cc	8g	8c	.	.	.	.	.	.	.	.	.
.	.	.	8r	8r	8r	8r	.	.	.	.	.	.	.	.	.
=54	=54	=54	=54	=54	=54	=54	=54	=54	=54	=54	=54	=54	=54	=54	=54
2r	2r	2r	4dd	4b	4g	4G	2r	2r	2r	2r	2r	2r	2r	2r	2r
.	.	.	4r	4r	4r	4r	.	.	.	.	.	.	.	.	.
4ccc	4e	4C	4ccc	4cc	4g	8E	8E	4ccc	4ccc	4cc	8E	8E	4cc	4e	4cc
.	.	.	.	.	.	8G	8G	.	.	.	8G	8G	.	.	.
=55	=55	=55	=55	=55	=55	=55	=55	=55	=55	=55	=55	=55	=55	=55	=55
4bb	4g	4GG	4bb	4dd	4g	8F	8F	4bb	4bb	4dd	8F	8F	4dd	4g	4dd
.	.	.	.	.	.	8G	8G	.	.	.	8G	8G	.	.	.
4ccc	4e	4C	4ccc	4ee	4g	8E	8E	4ccc	4ccc	4ee	8E	8E	4cc	4e	4cc
.	.	.	.	.	.	8G	8G	.	.	.	8G	8G	.	.	.
4ddd	4g	4GG	4ddd	4ff	4g 4B	8D	8D	4ddd	4ff	4ff	8D	8D	4dd	4g	4dd
.	.	.	.	.	.	8G	8G	.	.	.	8G	8G	.	.	.
=56	=56	=56	=56	=56	=56	=56	=56	=56	=56	=56	=56	=56	=56	=56	=56
4eee	2cc	4C	4eee	4gg	2c 2e	2C	2C	4eee	4ee	4gg	2C	2C	4ee	4cc	2ee
4ccc	.	2r	4ccc	4ee	.	.	.	4ccc	4cc	4ee	.	.	4cc	4e	.
4aa	4r	.	4aa	4ff	4f	4F	4F	4aa	4aa	4ff	4F	4F	4cc	4cc	4r
=57	=57	=57	=57	=57	=57	=57	=57	=57	=57	=57	=57	=57	=57	=57	=57
4gg	4ee	4GG	4gg	4ee	2g	2G	2G	4gg	4gg	4ee	2G	2G	4cc	4cc	4gg
4ee	4cc	8GG	4ee	4cc	.	.	.	4ee	4ee	4cc	.	.	4ee	4cc	4ee
.	.	8GG	.	.	.	.	.	.	.	.	.	.	.	.	.
4dd	4g	8GG	4dd	4b	4G	4GG	4GG	4dd	4dd	4b	4GG	4GG	4dd	4g	4dd
.	.	8GG	.	.	.	.	.	.	.	.	.	.	.	.	.
=58	=58	=58	=58	=58	=58	=58	=58	=58	=58	=58	=58	=58	=58	=58	=58
4cc	4e	4C	4cc	4cc	4c	8CC	4C	4cc	4cc	4cc	4C	4C	4cc	4e	4cc
.	.	.	.	.	.	8C	.	.	.	.	.	.	.	.	.
2r	2r	2r	4r	4r	2r	8CC	2r	2r	2r	2r	2r	2r	2r	2r	2r
.	.	.	.	.	.	8C	.	.	.	.	.	.	.	.	.
.	.	.	4a	4f	.	8CC	.	.	.	.	.	.	.	.	.
.	.	.	.	.	.	8C	.	.	.	.	.	.	.	.	.
=59	=59	=59	=59	=59	=59	=59	=59	=59	=59	=59	=59	=59	=59	=59	=59
2.r	2.r	2.r	4g	4e	2.r	8CC	2.r	2.r	2r	2r	2.r	2.r	2.r	2.r	2.r
.	.	.	.	.	.	8C	.	.	.	.	.	.	.	.	.
.	.	.	4c	4c	.	8CC	.	.	.	.	.	.	.	.	.
.	.	.	.	.	.	8C	.	.	.	.	.	.	.	.	.
.	.	.	4r	4r	.	8CC	.	.	4aa	4ff	.	.	.	.	.
.	.	.	.	.	.	8C	.	.	.	.	.	.	.	.	.
=60	=60	=60	=60	=60	=60	=60	=60	=60	=60	=60	=60	=60	=60	=60	=60
2r	2.r	2.r	2.r	2.r	2.r	8CC	2.r	2r	4gg	4ee	2.r	2.r	2.r	2.r	2.r
.	.	.	.	.	.	8C	.	.	.	.	.	.	.	.	.
.	.	.	.	.	.	8CC	.	.	4cc	4cc	.	.	.	.	.
.	.	.	.	.	.	8C	.	.	.	.	.	.	.	.	.
4aa	.	.	.	.	.	8CC	.	4aa	4r	4r	.	.	.	.	.
.	.	.	.	.	.	8C	.	.	.	.	.	.	.	.	.
=61	=61	=61	=61	=61	=61	=61	=61	=61	=61	=61	=61	=61	=61	=61	=61
4gg	2.r	2.r	2.r	2.r	2.r	8CC	2.r	4gg	2.r	2.r	2r	2r	2.r	2.r	2.r
.	.	.	.	.	.	8C	.	.	.	.	.	.	.	.	.
4ee	.	.	.	.	.	8CC	.	4ee	.	.	.	.	.	.	.
.	.	.	.	.	.	8C	.	.	.	.	.	.	.	.	.
4r	.	.	.	.	.	8CC	.	4r	.	.	4A	4F	.	.	.
.	.	.	.	.	.	8C	.	.	.	.	.	.	.	.	.
=62	=62	=62	=62	=62	=62	=62	=62	=62	=62	=62	=62	=62	=62	=62	=62
2r	2r	8C	2r	2r	2r	8CC	2r	2r	2r	2r	4G	4E	2r	2r	2r
.	.	8C	.	.	.	8C	.	.	.	.	.	.	.	.	.
.	.	8C	.	.	.	8CC	.	.	.	.	4E	4C	.	.	.
.	.	8C	.	.	.	8C	.	.	.	.	.	.	.	.	.
4ccc	4e	8C	4ccc	4cc	4g	8E	8E	4ccc	4ccc	4cc	8E	8E	4cc	4e	4cc
.	.	8C	.	.	.	8G	8G	.	.	.	8G	8G	.	.	.
=63	=63	=63	=63	=63	=63	=63	=63	=63	=63	=63	=63	=63	=63	=63	=63
4bb	4g	4GG	4bb	4dd	4g	8F	8F	4bb	4bb	4dd	8F	8F	4dd	4g	4dd
.	.	.	.	.	.	8G	8G	.	.	.	8G	8G	.	.	.
4ccc	4e	4C	4ccc	4ee	4g	8E	8E	4ccc	4ccc	4ee	8E	8E	4cc	4e	4cc
.	.	.	.	.	.	8G	8G	.	.	.	8G	8G	.	.	.
4ddd	4g	4GG	4ddd	4ff	4g 4B	8D	8D	4ddd	4ff	4ff	8D	8D	4dd	4g	4dd
.	.	.	.	.	.	8G	8G	.	.	.	8G	8G	.	.	.
=64	=64	=64	=64	=64	=64	=64	=64	=64	=64	=64	=64	=64	=64	=64	=64
4eee	4cc	4C	4eee	4gg	2e 2c	2C	2C	4eee	4ee	4ee	4C	4C	4ee	4cc	4ee
4ccc	4e	4r	4ccc	4ee	.	.	.	4ccc	4cc	4cc	4r	4r	4cc	4e	4cc
4r	4g	4GG	4r	4r	4r	4r	4r	4r	4dd	4g	4G	4G	4dd	4g	4dd
=65	=65	=65	=65	=65	=65	=65	=65	=65	=65	=65	=65	=65	=65	=65	=65
2r	4cc	4C	2r	2r	2r	2r	2r	2r	4ee	4cc	4c	4c	4ee	4cc	4ee
.	4e	4r	.	.	.	.	.	.	4cc	4e	4E	4E	4cc	4e	4cc
4ddd	4g	4GG	4ddd	4bb	4g	4G	4G	4ddd	4dd	4b	4G	4G	4dd	4g	4dd
=66	=66	=66	=66	=66	=66	=66	=66	=66	=66	=66	=66	=66	=66	=66	=66
4eee	4cc	4C	4eee	4ccc	2cc	2c	2c	4eee	4ee	4cc	2c	2c	4ee	4cc	4ee
4ccc	4e	2r	4ccc	4ee	.	.	.	4ccc	4cc	4ee	.	.	4cc	4e	4cc
4eee	4r	.	4eee	4ccc	4a	4A	4A	4eee	4ccc	4ee	4A	4A	4r	4r	4r
=67	=67	=67	=67	=67	=67	=67	=67	=67	=67	=67	=67	=67	=67	=67	=67
4fff	2r	2r	4fff	4aa	4d	4D	4D	4fff	4aa	4ff	4D	4D	2r	2r	2r
4ddd	.	.	4ddd	4ff	4f	4F	4F	4ddd	4ff	4dd	4F	4F	.	.	.
4bb	4g	4GG	4bb	4dd	4g	4G	4G	4bb	4dd	4b	4G	4G	4dd	4g	4dd
=68	=68	=68	=68	=68	=68	=68	=68	=68	=68	=68	=68	=68	=68	=68	=68
4ccc	4e	4C	4ccc	4ee 4cc	4c	4C	4C	4ccc	4ee	4cc	4C	4C	4cc	4e	4cc
4r	4r	4r	4r	4r	4r	4r	4r	4r	4r	2r	4r	4r	4r	4r	4r
4r	4r	4r	8ee	4r	4r	4r	4r	4r	8ee	.	8c	4r	4r	4r	4r
.	.	.	8ff	.	.	.	.	.	8ff	.	8d	.	.	.	.
=69	=69	=69	=69	=69	=69	=69	=69	=69	=69	=69	=69	=69	=69	=69	=69
2.r	2.r	2.r	2.gg	8e	8c	4C	4C	2.r	2.gg	2.r	2.e	2.r	2.r	2.r	2.r
.	.	.	.	8G	8G	.	.	.	.	.	.	.	.	.	.
.	.	.	.	8c	8e	2r	2r	.	.	.	.	.	.	.	.
.	.	.	.	8G	8G	.	.	.	.	.	.	.	.	.	.
.	.	.	.	8e	8c	.	.	.	.	.	.	.	.	.	.
.	.	.	.	8G	8G	.	.	.	.	.	.	.	.	.	.
=70	=70	=70	=70	=70	=70	=70	=70	=70	=70	=70	=70	=70	=70	=70	=70
2.r	2.r	2.r	4ee	8e	8c	4C	4C	2.r	4ee	2.r	4c	2.r	2.r	2.r	2.r
.	.	.	.	8G	8G	.	.	.	.	.	.	.	.	.	.
.	.	.	4cc	8c	8e	2r	2r	.	4cc	.	4E	.	.	.	.
.	.	.	.	8G	8G	.	.	.	.	.	.	.	.	.	.
.	.	.	4cc	8e	8c	.	.	.	4cc	.	4E	.	.	.	.
.	.	.	.	8G	8G	.	.	.	.	.	.	.	.	.	.
=71	=71	=71	=71	=71	=71	=71	=71	=71	=71	=71	=71	=71	=71	=71	=71
2.r	2.r	2.r	4ff	8f	8d	4GG	4GG	2.r	4ff	2.r	4d	2.r	2.r	2.r	2.r
.	.	.	.	8G	8G	.	.	.	.	.	.	.	.	.	.
.	.	.	8ff	8d	8f	2r	2r	.	8ff	.	8d	.	.	.	.
.	.	.	8ee	8G	8G	.	.	.	8ee	.	8c	.	.	.	.
.	.	.	4ff	8f	8d	.	.	.	4ff	.	4d	.	.	.	.
.	.	.	.	8G	8G	.	.	.	.	.	.	.	.	.	.
=72	=72	=72	=72	=72	=72	=72	=72	=72	=72	=72	=72	=72	=72	=72	=72
2.r	2.r	2.r	4dd	8f	8d	4GG	4GG	2.r	4dd	2.r	4B	2.r	2.r	2.r	2.r
.	.	.	.	8G	8G	.	.	.	.	.	.	.	.	.	.
.	.	.	4r	8d	8f	2r	2r	.	4r	.	4r	.	.	.	.
.	.	.	.	8G	8G	.	.	.	.	.	.	.	.	.	.
.	.	.	8dd	8f	8d	.	.	.	8dd	.	8B	.	.	.	.
.	.	.	8ee	8G	8G	.	.	.	8ee	.	8c	.	.	.	.
=73	=73	=73	=73	=73	=73	=73	=73	=73	=73	=73	=73	=73	=73	=73	=73
2.r	2.r	2.r	4ff	8f	8d	4GG	4GG	2.r	4ff	2.r	4d	2.r	2.r	2.r	2.r
.	.	.	.	8G	8G	.	.	.	.	.	.	.	.	.	.
.	.	.	8ff	8d	8f	2r	2r	.	8ff	.	8d	.	.	.	.
.	.	.	8ee	8G	8G	.	.	.	8ee	.	8c	.	.	.	.
.	.	.	4ff	8f	8d	.	.	.	4ff	.	4d	.	.	.	.
.	.	.	.	8G	8G	.	.	.	.	.	.	.	.	.	.
=74	=74	=74	=74	=74	=74	=74	=74	=74	=74	=74	=74	=74	=74	=74	=74
2.r	2.r	2.r	4ee	8e	8c	4C	4C	2.r	4ee	2.r	4c	2.r	2.r	2.r	2.r
.	.	.	.	8G	8G	.	.	.	.	.	.	.	.	.	.
.	.	.	8ee	8c	8e	2r	2r	.	8ee	.	8c	.	.	.	.
.	.	.	8dd	8G	8G	.	.	.	8dd	.	8B	.	.	.	.
.	.	.	4ee	8e	8c	.	.	.	4ee	.	4c	.	.	.	.
.	.	.	.	8G	8G	.	.	.	.	.	.	.	.	.	.
=75	=75	=75	=75	=75	=75	=75	=75	=75	=75	=75	=75	=75	=75	=75	=75
2.r	2.r	2.r	4dd	8f	8B	4GG	4GG	2.r	4dd	2.r	4f	2.r	2.r	2.r	2.r
.	.	.	.	8G	8G	.	.	.	.	.	.	.	.	.	.
.	.	.	8dd	8d	8d	2r	2r	.	8dd	.	8f	.	.	.	.
.	.	.	8cc	8G	8G	.	.	.	8cc	.	8e	.	.	.	.
.	.	.	4dd	8f	8B	.	.	.	4dd	.	4f	.	.	.	.
.	.	.	.	8G	8G	.	.	.	.	.	.	.	.	.	.
=76	=76	=76	=76	=76	=76	=76	=76	=76	=76	=76	=76	=76	=76	=76	=76
2.r	2.r	2.r	4cc	4e	4c	4C	4C	2.r	4cc	2.r	4e	2.r	2.r	2.r	2.r
.	.	.	4r	2r	2r	4c	4c	.	4r	.	4r	.	.	.	.
.	.	.	8ee	.	.	4r	4r	.	8ee	.	8c	.	.	.	.
.	.	.	8ff	.	.	.	.	.	8ff	.	8d	.	.	.	.
=77	=77	=77	=77	=77	=77	=77	=77	=77	=77	=77	=77	=77	=77	=77	=77
2.r	2.r	2.r	2.gg	8e	8c	4C	4C	2.r	2.gg	2.r	2.e	2.r	4r	4r	2.r
.	.	.	.	8G	8G	.	.	.	.	.	.	.	.	.	.
.	.	.	.	8c	8e	2r	2r	.	.	.	.	.	4cc	4e	.
.	.	.	.	8G	8G	.	.	.	.	.	.	.	.	.	.
.	.	.	.	8e	8c	.	.	.	.	.	.	.	4cc	4e	.
.	.	.	.	8G	8G	.	.	.	.	.	.	.	.	.	.
=78	=78	=78	=78	=78	=78	=78	=78	=78	=78	=78	=78	=78	=78	=78	=78
2.r	2.r	2.r	4ee	8e	8c	4C	4C	2.r	4ee	2.r	4c	2.r	4r	4r	2.r
.	.	.	.	8G	8G	.	.	.	.	.	.	.	.	.	.
.	.	.	4cc	8c	8e	2r	2r	.	4cc	.	4E	.	4cc	4e	.
.	.	.	.	8G	8G	.	.	.	.	.	.	.	.	.	.
.	.	.	4cc	8e	8c	.	.	.	4cc	.	4E	.	4cc	4e	.
.	.	.	.	8G	8G	.	.	.	.	.	.	.	.	.	.
=79	=79	=79	=79	=79	=79	=79	=79	=79	=79	=79	=79	=79	=79	=79	=79
2.r	2.r	2.r	4ff	8f	8d	4GG	4GG	2.r	4ff	2.r	4d	2.r	4r	4r	2.r
.	.	.	.	8G	8G	.	.	.	.	.	.	.	.	.	.
.	.	.	8ff	8d	8f	2r	2r	.	8ff	.	8d	.	4dd	4g	.
.	.	.	8ee	8G	8G	.	.	.	8ee	.	8c	.	.	.	.
.	.	.	4ff	8f	8d	.	.	.	4ff	.	4d	.	4dd	4g	.
.	.	.	.	8G	8G	.	.	.	.	.	.	.	.	.	.
=80	=80	=80	=80	=80	=80	=80	=80	=80	=80	=80	=80	=80	=80	=80	=80
2.r	2.r	2.r	4dd	8f	8d	4GG	4GG	2.r	4dd	2.r	4B	2.r	4r	4r	2.r
.	.	.	.	8G	8G	.	.	.	.	.	.	.	.	.	.
.	.	.	4r	8d	8f	2r	2r	.	4r	.	4r	.	4dd	4g	.
.	.	.	.	8G	8G	.	.	.	.	.	.	.	.	.	.
.	.	.	8dd	8f	8d	.	.	.	8dd	.	8B	.	4dd	4g	.
.	.	.	8ee	8G	8G	.	.	.	8ee	.	8c	.	.	.	.
=81	=81	=81	=81	=81	=81	=81	=81	=81	=81	=81	=81	=81	=81	=81	=81
2.r	2.r	2.r	4ff	8f	8d	4GG	4GG	2.r	4ff	2.r	4d	2.r	4r	4r	2.r
.	.	.	.	8G	8G	.	.	.	.	.	.	.	.	.	.
.	.	.	8ff	8d	8f	2r	2r	.	8ff	.	8d	.	4dd	4g	.
.	.	.	8ee	8G	8G	.	.	.	8ee	.	8c	.	.	.	.
.	.	.	4ff	8f	8d	.	.	.	4ff	.	4d	.	4dd	4g	.
.	.	.	.	8G	8G	.	.	.	.	.	.	.	.	.	.
=82	=82	=82	=82	=82	=82	=82	=82	=82	=82	=82	=82	=82	=82	=82	=82
2.r	2.r	2.r	4ee	8e	8c	4C	4C	2.r	4ee	2.r	4c	2.r	4r	4r	2.r
.	.	.	.	8G	8G	.	.	.	.	.	.	.	.	.	.
.	.	.	8ee	8c	8e	2r	2r	.	8ee	.	8c	.	4ee	4cc	.
.	.	.	8dd	8G	8G	.	.	.	8dd	.	8B	.	.	.	.
.	.	.	4ee	8e	8c	.	.	.	4ee	.	4c	.	4ee	4cc	.
.	.	.	.	8G	8G	.	.	.	.	.	.	.	.	.	.
=83	=83	=83	=83	=83	=83	=83	=83	=83	=83	=83	=83	=83	=83	=83	=83
2.r	2.r	2.r	4dd	8f	8B	4GG	4GG	2.r	4dd	2.r	4f	2.r	4r	4r	2.r
.	.	.	.	8G	8G	.	.	.	.	.	.	.	.	.	.
.	.	.	8dd	8d	8d	2r	2r	.	8dd	.	8f	.	4dd	4g	.
.	.	.	8cc	8G	8G	.	.	.	8cc	.	8e	.	.	.	.
.	.	.	4dd	8f	8B	.	.	.	4dd	.	4f	.	4dd	4g	.
.	.	.	.	8G	8G	.	.	.	.	.	.	.	.	.	.
=84	=84	=84	=84	=84	=84	=84	=84	=84	=84	=84	=84	=84	=84	=84	=84
2.r	2.r	2.r	4cc	4e	4c	4C	4C	2.r	4cc	2.r	4e	2.r	4cc	4e	2.r
.	.	.	4r	2r	2r	2r	2r	.	4r	.	2r	.	2r	2r	.
.	.	.	8b	.	.	.	.	.	8b	.	.	.	.	.	.
.	.	.	8cc	.	.	.	.	.	8cc	.	.	.	.	.	.
=85	=85	=85	=85	=85	=85	=85	=85	=85	=85	=85	=85	=85	=85	=85	=85
2.r	2.r	2.r	8b	4f 4d	4G	4GG	4GG	2.r	8b	2.r	2.r	2.r	2.r	2.r	2.r
.	.	.	8dd	.	.	.	.	.	8dd	.	.	.	.	.	.
.	.	.	8b	2r	2r	2r	2r	.	8b	.	.	.	.	.	.
.	.	.	8g	.	.	.	.	.	8g	.	.	.	.	.	.
.	.	.	8b	.	.	.	.	.	8b	.	.	.	.	.	.
.	.	.	8dd	.	.	.	.	.	8dd	.	.	.	.	.	.
=86	=86	=86	=86	=86	=86	=86	=86	=86	=86	=86	=86	=86	=86	=86	=86
2.r	2.r	2.r	8cc	4c 4e	4G	4GG	4GG	2.r	8cc	2.r	2.r	2.r	2.r	2.r	2.r
.	.	.	8ee	.	.	.	.	.	8ee	.	.	.	.	.	.
.	.	.	8cc	2r	2r	2r	2r	.	8cc	.	.	.	.	.	.
.	.	.	8g	.	.	.	.	.	8g	.	.	.	.	.	.
.	.	.	8cc	.	.	.	.	.	8cc	.	.	.	.	.	.
.	.	.	8ee	.	.	.	.	.	8ee	.	.	.	.	.	.
=87	=87	=87	=87	=87	=87	=87	=87	=87	=87	=87	=87	=87	=87	=87	=87
2.r	2.r	2.r	8dd	4B	4G	4GG	4GG	2.r	8dd	2.r	2.r	2.r	2.r	2.r	2.r
.	.	.	8ff	.	.	.	.	.	8ff	.	.	.	.	.	.
.	.	.	8ee	4c	2r	2r	2r	.	8ee	.	.	.	.	.	.
.	.	.	8gg	.	.	.	.	.	8gg	.	.	.	.	.	.
.	.	.	8ff	4d	.	.	.	.	8ff	.	.	.	.	.	.
.	.	.	8aa	.	.	.	.	.	8aa	.	.	.	.	.	.
=88	=88	=88	=88	=88	=88	=88	=88	=88	=88	=88	=88	=88	=88	=88	=88
2.r	2.r	2.r	2dd	8B	8G	4GG	4GG	2.r	2dd	2.r	2.r	2.r	2.r	2.r	2.r
.	.	.	.	8d	8B	.	.	.	.	.	.	.	.	.	.
.	.	.	.	8B	8G	2r	2r	.	.	.	.	.	.	.	.
.	.	.	.	8d	8B	.	.	.	.	.	.	.	.	.	.
.	.	.	8ff#	8c	8A	.	.	.	8ff#	.	.	.	.	.	.
.	.	.	8aa	8A	8F#	.	.	.	8aa	.	.	.	.	.	.
=89	=89	=89	=89	=89	=89	=89	=89	=89	=89	=89	=89	=89	=89	=89	=89
2.r	2.r	2.r	2dd	8B	8G	4GG	4GG	2.r	2dd	2.r	2.r	2.r	2.r	2.r	2.r
.	.	.	.	8d	8B	.	.	.	.	.	.	.	.	.	.
.	.	.	.	8B	8G	2r	2r	.	.	.	.	.	.	.	.
.	.	.	.	8d	8B	.	.	.	.	.	.	.	.	.	.
.	.	.	8ff#	8c	8A	.	.	.	8ff#	.	.	.	.	.	.
.	.	.	8aa	8A	8F#	.	.	.	8aa	.	.	.	.	.	.
=90	=90	=90	=90	=90	=90	=90	=90	=90	=90	=90	=90	=90	=90	=90	=90
2.r	2.r	2.r	2dd	8B	8G	4GG	4GG	2.r	2dd	2.r	2.r	2.r	2.r	2.r	2.r
.	.	.	.	8d	8B	.	.	.	.	.	.	.	.	.	.
.	.	.	.	8B	8G	2r	2r	.	.	.	.	.	.	.	.
.	.	.	.	8d	8B	.	.	.	.	.	.	.	.	.	.
.	.	.	8ff#	8c	8A	.	.	.	8ff#	.	.	.	.	.	.
.	.	.	8aa	8A	8F#	.	.	.	8aa	.	.	.	.	.	.
=91	=91	=91	=91	=91	=91	=91	=91	=91	=91	=91	=91	=91	=91	=91	=91
2.r	2.r	2.r	4dd	8B	8G	4GG	4GG	2.r	4dd	2.r	2.r	2.r	2.r	2.r	2.r
.	.	.	.	8d	8B	.	.	.	.	.	.	.	.	.	.
.	.	.	4dd	8B	8G	4GG	4GG	.	4dd	.	.	.	.	.	.
.	.	.	.	8d	8B	.	.	.	.	.	.	.	.	.	.
.	.	.	8ff#	8c	8A	4GG	4GG	.	8ff#	.	.	.	.	.	.
.	.	.	8aa	8A	8F#	.	.	.	8aa	.	.	.	.	.	.
=92	=92	=92	=92	=92	=92	=92	=92	=92	=92	=92	=92	=92	=92	=92	=92
2.r	2.r	2.r	4.gg	4B	4G	4GG	4GG	2.r	4.gg	2.r	2r	2.r	2.r	2.r	2.r
.	.	.	.	2r	2r	4G	4G	.	.	.	.	.	.	.	.
.	.	.	8ff	.	.	.	.	.	8ff	.	.	.	.	.	.
.	.	.	8ee	.	.	4r	4r	.	8ee	.	8c	.	.	.	.
.	.	.	8ff	.	.	.	.	.	8ff	.	8d	.	.	.	.
=93	=93	=93	=93	=93	=93	=93	=93	=93	=93	=93	=93	=93	=93	=93	=93
2.r	2.r	2.r	2.gg	8e	8c	4C	4C	2.r	2.gg	2.r	2.e	2.r	4r	4r	2.r
.	.	.	.	8G	8G	.	.	.	.	.	.	.	.	.	.
.	.	.	.	8c	8e	2r	2r	.	.	.	.	.	4gg	4ee	.
.	.	.	.	8G	8G	.	.	.	.	.	.	.	.	.	.
.	.	.	.	8e	8c	.	.	.	.	.	.	.	4gg	4ee	.
.	.	.	.	8G	8G	.	.	.	.	.	.	.	.	.	.
=94	=94	=94	=94	=94	=94	=94	=94	=94	=94	=94	=94	=94	=94	=94	=94
2.r	2.r	2.r	4ee	8e	8c	4C	4C	2.r	4ee	2.r	4c	2.r	4r	4r	2.r
.	.	.	.	8G	8G	.	.	.	.	.	.	.	.	.	.
.	.	.	4cc	8c	8e	2r	2r	.	4cc	.	4E	.	4ee	4cc	.
.	.	.	.	8G	8G	.	.	.	.	.	.	.	.	.	.
.	.	.	4cc	8e	8c	.	.	.	4cc	.	4E	.	4ee	4cc	.
.	.	.	.	8G	8G	.	.	.	.	.	.	.	.	.	.
=95	=95	=95	=95	=95	=95	=95	=95	=95	=95	=95	=95	=95	=95	=95	=95
2.r	2.r	2.r	4ff	8f	8d	4GG	4GG	2.r	4ff	2.r	4d	2.r	4r	4r	2.r
.	.	.	.	8G	8G	.	.	.	.	.	.	.	.	.	.
.	.	.	8ff	8d	8f	2r	2r	.	8ff	.	8d	.	4ff	4dd	.
.	.	.	8ee	8G	8G	.	.	.	8ee	.	8c	.	.	.	.
.	.	.	4ff	8f	8d	.	.	.	4ff	.	4d	.	4ff	4dd	.
.	.	.	.	8G	8G	.	.	.	.	.	.	.	.	.	.
=96	=96	=96	=96	=96	=96	=96	=96	=96	=96	=96	=96	=96	=96	=96	=96
2.r	2.r	2.r	4dd	8f	8d	4GG	4GG	2.r	4dd	2.r	4B	2.r	4r	4r	2.r
.	.	.	.	8G	8G	.	.	.	.	.	.	.	.	.	.
.	.	.	4r	8d	8f	2r	2r	.	4r	.	4r	.	4dd	4g	.
.	.	.	.	8G	8G	.	.	.	.	.	.	.	.	.	.
.	.	.	8dd	8f	8d	.	.	.	8dd	.	8B	.	4dd	4g	.
.	.	.	8ee	8G	8G	.	.	.	8ee	.	8c	.	.	.	.
=97	=97	=97	=97	=97	=97	=97	=97	=97	=97	=97	=97	=97	=97	=97	=97
2.r	2.r	2.r	4ff	8f	8d	4GG	4GG	2.r	4ff	2.r	4d	2.r	4r	4r	2.r
.	.	.	.	8G	8G	.	.	.	.	.	.	.	.	.	.
.	.	.	8ff	8d	8f	2r	2r	.	8ff	.	8d	.	4dd	4g	.
.	.	.	8ee	8G	8G	.	.	.	8ee	.	8c	.	.	.	.
.	.	.	4ff	8f	8d	.	.	.	4ff	.	4d	.	4dd	4g	.
.	.	.	.	8G	8G	.	.	.	.	.	.	.	.	.	.
=98	=98	=98	=98	=98	=98	=98	=98	=98	=98	=98	=98	=98	=98	=98	=98
2.r	2.r	2.r	4ee	8e	8c	4C	4C	2.r	4ee	2.r	4c	2.r	4r	4r	2.r
.	.	.	.	8G	8G	.	.	.	.	.	.	.	.	.	.
.	.	.	8ee	8c	8e	2r	2r	.	8ee	.	8c	.	4ee	4cc	.
.	.	.	8dd	8G	8G	.	.	.	8dd	.	8B	.	.	.	.
.	.	.	4ee	8e	8c	.	.	.	4ee	.	4c	.	4ee	4cc	.
.	.	.	.	8G	8G	.	.	.	.	.	.	.	.	.	.
=99	=99	=99	=99	=99	=99	=99	=99	=99	=99	=99	=99	=99	=99	=99	=99
2.r	2.r	2.r	4dd	8f	8d	4GG	4GG	2.r	4dd	2.r	4f	2.r	4r	4r	2.r
.	.	.	.	8G	8G	.	.	.	.	.	.	.	.	.	.
.	.	.	8dd	8d	8f	2r	2r	.	8dd	.	8f	.	4dd	4g	.
.	.	.	8cc	8G	8G	.	.	.	8cc	.	8e	.	.	.	.
.	.	.	4dd	8f	8d	.	.	.	4dd	.	4f	.	4dd	4g	.
.	.	.	.	8G	8G	.	.	.	.	.	.	.	.	.	.
=100	=100	=100	=100	=100	=100	=100	=100	=100	=100	=100	=100	=100	=100	=100	=100
2.r	2.r	2.r	4cc	4e	4c	4C	4C	2.r	4cc	2.r	4e	2.r	4cc	4e	2.r
.	.	.	4r	2r	2r	4c	4c	.	4r	.	2r	.	2r	2r	.
.	.	.	8b	.	.	4r	4r	.	8b	.	.	.	.	.	.
.	.	.	8cc	.	.	.	.	.	8cc	.	.	.	.	.	.
=101	=101	=101	=101	=101	=101	=101	=101	=101	=101	=101	=101	=101	=101	=101	=101
2.r	2.r	2.r	8b	4f 4d	4G	4GG	4GG	2.r	8b	2.r	2.r	2.r	2.r	2.r	2.r
.	.	.	8dd	.	.	.	.	.	8dd	.	.	.	.	.	.
.	.	.	8b	2r	2r	2r	2r	.	8b	.	.	.	.	.	.
.	.	.	8g	.	.	.	.	.	8g	.	.	.	.	.	.
.	.	.	8b	.	.	.	.	.	8b	.	.	.	.	.	.
.	.	.	8dd	.	.	.	.	.	8dd	.	.	.	.	.	.
=102	=102	=102	=102	=102	=102	=102	=102	=102	=102	=102	=102	=102	=102	=102	=102
2.r	2.r	2.r	8cc	4e 4c	4G	4GG	4GG	2.r	8cc	2.r	2.r	2.r	2.r	2.r	2.r
.	.	.	8ee	.	.	.	.	.	8ee	.	.	.	.	.	.
.	.	.	8cc	2r	2r	2r	2r	.	8cc	.	.	.	.	.	.
.	.	.	8g	.	.	.	.	.	8g	.	.	.	.	.	.
.	.	.	8cc	.	.	.	.	.	8cc	.	.	.	.	.	.
.	.	.	8ee	.	.	.	.	.	8ee	.	.	.	.	.	.
=103	=103	=103	=103	=103	=103	=103	=103	=103	=103	=103	=103	=103	=103	=103	=103
2.r	2.r	2.r	8dd	4B	4G	4GG	4GG	2.r	8dd	2.r	2.r	2.r	2.r	2.r	2.r
.	.	.	8ff	.	.	.	.	.	8ff	.	.	.	.	.	.
.	.	.	8ee	4c	2r	2r	2r	.	8ee	.	.	.	.	.	.
.	.	.	8gg	.	.	.	.	.	8gg	.	.	.	.	.	.
.	.	.	8ff	4d	.	.	.	.	8ff	.	.	.	.	.	.
.	.	.	8aa	.	.	.	.	.	8aa	.	.	.	.	.	.
=104	=104	=104	=104	=104	=104	=104	=104	=104	=104	=104	=104	=104	=104	=104	=104
2.r	2.r	2.r	2dd	8B	8G	4GG	4GG	2.r	2dd	2.r	2r	2.r	2.r	2.r	2.r
.	.	.	.	8d	8B	.	.	.	.	.	.	.	.	.	.
.	.	.	.	8B	8G	2r	2r	.	.	.	.	.	.	.	.
.	.	.	.	8d	8B	.	.	.	.	.	.	.	.	.	.
.	.	.	8ff#	8c	8A	.	.	.	8ff#	.	4f#	.	.	.	.
.	.	.	8aa	8A	8F#	.	.	.	8aa	.	.	.	.	.	.
=105	=105	=105	=105	=105	=105	=105	=105	=105	=105	=105	=105	=105	=105	=105	=105
2.r	2.r	2.r	2dd	8B	8G	4GG	4GG	2.r	2dd	2.r	4g	2.r	2.r	2.r	2.r
.	.	.	.	8d	8B	.	.	.	.	.	.	.	.	.	.
.	.	.	.	8B	8G	2r	2r	.	.	.	4r	.	.	.	.
.	.	.	.	8d	8B	.	.	.	.	.	.	.	.	.	.
.	.	.	8ff#	8c	8A	.	.	.	8ff#	.	4f#	.	.	.	.
.	.	.	8aa	8A	8F#	.	.	.	8aa	.	.	.	.	.	.
=106	=106	=106	=106	=106	=106	=106	=106	=106	=106	=106	=106	=106	=106	=106	=106
2.r	2.r	2.r	2dd	8B	8G	4GG	4GG	2.r	2dd	2.r	4g	2.r	2.r	2.r	2.r
.	.	.	.	8d	8B	.	.	.	.	.	.	.	.	.	.
.	.	.	.	8B	8G	2r	2r	.	.	.	4r	.	.	.	.
.	.	.	.	8d	8B	.	.	.	.	.	.	.	.	.	.
.	.	.	8ff#	8c	8A	.	.	.	8ff#	.	4f#	.	.	.	.
.	.	.	8aa	8A	8F#	.	.	.	8aa	.	.	.	.	.	.
=107	=107	=107	=107	=107	=107	=107	=107	=107	=107	=107	=107	=107	=107	=107	=107
2.r	2.r	2.r	4dd	8B	8G	4GG	4GG	2.r	4dd	2.r	4g	2.r	2.r	2.r	2.r
.	.	.	.	8d	8B	.	.	.	.	.	.	.	.	.	.
.	.	.	4dd	8B	8G	4GG	4GG	.	4dd	.	4r	.	.	.	.
.	.	.	.	8d	8B	.	.	.	.	.	.	.	.	.	.
.	.	.	8ff#	8c	8A	4GG	4GG	.	8ff#	.	4f#	.	.	.	.
.	.	.	8aa	8A	8F#	.	.	.	8aa	.	.	.	.	.	.
=108	=108	=108	=108	=108	=108	=108	=108	=108	=108	=108	=108	=108	=108	=108	=108
2.r	2.r	2.r	4.gg	4B	4G	4GG	4GG	2.r	4.gg	2.r	4.g	2.r	2.r	2.r	2.r
.	.	.	.	2r	2r	4G	4G	.	.	.	.	.	.	.	.
.	.	.	8r	.	.	.	.	.	8ff	.	8f	.	.	.	.
.	.	.	8eee	.	.	4r	4r	.	8ee	.	8e	.	.	.	.
.	.	.	8fff	.	.	.	.	.	8ff	.	8d	.	.	.	.
=109	=109	=109	=109	=109	=109	=109	=109	=109	=109	=109	=109	=109	=109	=109	=109
2.r	4r	4C	2.ggg	8e	8c	4C	4C	2.r	2.gg	2.r	2.e	2.r	2.gg	2.ee	4r
.	.	.	.	8G	8G	.	.	.	.	.	.	.	.	.	.
.	4e	2r	.	8c	8e	2r	2r	.	.	.	.	.	.	.	4cc
.	.	.	.	8G	8G	.	.	.	.	.	.	.	.	.	.
.	4e	.	.	8e	8c	.	.	.	.	.	.	.	.	.	4cc
.	.	.	.	8G	8G	.	.	.	.	.	.	.	.	.	.
=110	=110	=110	=110	=110	=110	=110	=110	=110	=110	=110	=110	=110	=110	=110	=110
2.r	4r	4C	4eee	8e	8c	4C	4C	2.r	4ee	2.r	4c	2.r	4ee	4cc	4r
.	.	.	.	8G	8G	.	.	.	.	.	.	.	.	.	.
.	4cc	2r	4ccc	8c	8e	2r	2r	.	4cc	.	4E	.	2r	2r	4ee
.	.	.	.	8G	8G	.	.	.	.	.	.	.	.	.	.
.	4cc	.	4ccc	8e	8c	.	.	.	4cc	.	4E	.	.	.	4ee
.	.	.	.	8G	8G	.	.	.	.	.	.	.	.	.	.
=111	=111	=111	=111	=111	=111	=111	=111	=111	=111	=111	=111	=111	=111	=111	=111
2.r	4r	4GG	4fff	8f	8d	4GG	4GG	2.r	4ff	2.r	4d	2.r	2.ff	2.dd	4r
.	.	.	.	8G	8G	.	.	.	.	.	.	.	.	.	.
.	4dd	2r	8fff	8d	8f	2r	2r	.	8ff	.	8d	.	.	.	4ff
.	.	.	8eee	8G	8G	.	.	.	8ee	.	8c	.	.	.	.
.	4dd	.	4fff	8f	8d	.	.	.	4ff	.	4d	.	.	.	4ff
.	.	.	.	8G	8G	.	.	.	.	.	.	.	.	.	.
=112	=112	=112	=112	=112	=112	=112	=112	=112	=112	=112	=112	=112	=112	=112	=112
2.r	4r	4GG	4ddd	8f	8d	4GG	4GG	2.r	4dd	2.r	4B	2.r	4dd	4g	4r
.	.	.	.	8G	8G	.	.	.	.	.	.	.	.	.	.
.	4g	2r	4r	8d	8f	2r	2r	.	4r	.	4r	.	2r	2r	4dd
.	.	.	.	8G	8G	.	.	.	.	.	.	.	.	.	.
.	4g	.	8ddd	8f	8d	.	.	.	8dd	.	8B	.	.	.	4dd
.	.	.	8eee	8G	8G	.	.	.	8ee	.	8c	.	.	.	.
=113	=113	=113	=113	=113	=113	=113	=113	=113	=113	=113	=113	=113	=113	=113	=113
2.r	4r	4GG	4fff	8f	8d	4GG	4GG	2.r	4ff	2.r	4d	2.r	2.dd	2.g	4r
.	.	.	.	8G	8G	.	.	.	.	.	.	.	.	.	.
.	4g	2r	8fff	8d	8f	2r	2r	.	8ff	.	8d	.	.	.	4dd
.	.	.	8eee	8G	8G	.	.	.	8ee	.	8c	.	.	.	.
.	4g	.	4fff	8f	8d	.	.	.	4ff	.	4d	.	.	.	4dd
.	.	.	.	8G	8G	.	.	.	.	.	.	.	.	.	.
=114	=114	=114	=114	=114	=114	=114	=114	=114	=114	=114	=114	=114	=114	=114	=114
2.r	4r	4C	4eee	8e	8c	4C	4C	2.r	4ee	2.r	4c	2.r	4ee	4cc	4r
.	.	.	.	8G	8G	.	.	.	.	.	.	.	.	.	.
.	4cc	2r	8eee	8c	8e	2r	2r	.	8ee	.	8c	.	2r	2r	4ee
.	.	.	8ddd	8G	8G	.	.	.	8dd	.	8B	.	.	.	.
.	4cc	.	4eee	8e	8c	.	.	.	4ee	.	4c	.	.	.	4ee
.	.	.	.	8G	8G	.	.	.	.	.	.	.	.	.	.
=115	=115	=115	=115	=115	=115	=115	=115	=115	=115	=115	=115	=115	=115	=115	=115
2.r	4r	4GG	4ddd	8f	8d	4GG	4GG	2.r	4dd	2.r	4B	2.r	2.dd	2.g	4r
.	.	.	.	8G	8G	.	.	.	.	.	.	.	.	.	.
.	4g	2r	8ddd	8d	8f	2r	2r	.	8dd	.	8B	.	.	.	4dd
.	.	.	8ccc	8G	8G	.	.	.	8cc	.	8A	.	.	.	.
.	4g	.	4ddd	8f	8d	.	.	.	4dd	.	4B	.	.	.	4dd
.	.	.	.	8G	8G	.	.	.	.	.	.	.	.	.	.
=116	=116	=116	=116	=116	=116	=116	=116	=116	=116	=116	=116	=116	=116	=116	=116
2.r	4e	4C	4ccc	4e	4c	4C	4C	2.r	4cc	2.r	4c	2.r	4cc	4e	4cc
.	2r	2r	2r	2r	2r	2r	2r	.	2r	.	2r	.	2r	2r	2r
==	==	==	==	==	==	==	==	==	==	==	==	==	==	==	==
*-	*-	*-	*-	*-	*-	*-	*-	*-	*-	*-	*-	*-	*-	*-	*-
!!!RWG1: This file contains only pitch and duration data.
!!!RWG2: Transposing instruments are not transposed.
!!!RWG3: Spines may have incompatible meters.
!!!RWG4: Durations of rests and tied notes may be interpreted.
!!!RWG: Key is interpreted using the Humdrum key tool.
!!!AFT: stage1
!!!END: 1997/04/15
!!format changes:
!!content changes:
!!public access: complete
!!!KEY: 2198333156
!!!EMD: Converted from MuseData to Humdrum Dec 16, 2000, by Andreas Kornstaedt using muse2kern.
